static/cards/FrenchDeck/default/card_diamonds_06.svg

<svg width="219" height="304" viewBox="0 0 219 304" fill="none" xmlns="http://www.w3.org/2000/svg">
<g filter="url(#filter0_d_18_673)">
<g clip-path="url(#clip0_18_673)">
<rect x="8" y="4" width="203" height="288" rx="10" fill="white"/>
<path d="M16.0308 31.1274C16.0308 21.498 19.7344 16.1528 26.3809 16.1528C28.5229 16.1528 30.585 16.7334 32.1064 17.7744C33.4277 18.6353 34.2285 19.7363 34.2285 20.6572C34.2285 21.5181 33.6079 22.1587 32.7471 22.1587C32.1865 22.1587 31.7661 21.9385 31.0454 21.2378C29.604 19.8164 28.1025 19.1758 26.3208 19.1758C21.8564 19.1758 19.4941 23.0996 19.4341 30.5869H19.5942C20.5151 28.1445 23.3779 26.4229 26.501 26.4229C31.5859 26.4229 35.1494 30.0864 35.1494 35.3115C35.1494 40.8169 31.3857 44.5605 25.8203 44.5605C22.437 44.5605 19.7344 43.1592 18.0928 40.5767C16.7114 38.3745 16.0308 35.2715 16.0308 31.1274ZM19.9346 35.4316C19.9346 39.0151 22.417 41.5576 25.9604 41.5576C29.4038 41.5576 31.7061 39.1353 31.7061 35.4517C31.7061 31.8081 29.3838 29.4058 25.8203 29.4058C22.3569 29.4058 19.9346 31.8882 19.9346 35.4316Z" fill="#BC1E24"/>
<path d="M26.1801 52.104C26.1038 51.9653 25.8962 51.9653 25.8199 52.104C23.5263 56.2724 21.8722 58.4782 18.5553 61.8648C18.4816 61.9401 18.4816 62.0599 18.5553 62.1352C21.8722 65.5218 23.5263 67.7276 25.8199 71.896C25.8962 72.0347 26.1038 72.0347 26.1801 71.896C28.4737 67.7276 30.1278 65.5218 33.4447 62.1352C33.5184 62.0599 33.5184 61.9401 33.4447 61.8648C30.1278 58.4782 28.4737 56.2724 26.1801 52.104Z" fill="#BC1E24"/>
<path d="M202.969 264.873C202.969 274.502 199.266 279.847 192.619 279.847C190.477 279.847 188.415 279.267 186.894 278.226C185.572 277.365 184.771 276.264 184.771 275.343C184.771 274.482 185.392 273.841 186.253 273.841C186.813 273.841 187.234 274.062 187.955 274.762C189.396 276.184 190.897 276.824 192.679 276.824C197.144 276.824 199.506 272.9 199.566 265.413L199.406 265.413C198.485 267.855 195.622 269.577 192.499 269.577C187.414 269.577 183.851 265.914 183.851 260.688C183.851 255.183 187.614 251.439 193.18 251.439C196.563 251.439 199.266 252.841 200.907 255.423C202.289 257.625 202.969 260.729 202.969 264.873ZM199.065 260.568C199.065 256.985 196.583 254.442 193.04 254.442C189.596 254.442 187.294 256.865 187.294 260.548C187.294 264.192 189.616 266.594 193.18 266.594C196.643 266.594 199.065 264.112 199.065 260.568Z" fill="#BC1E24"/>
<path d="M192.82 243.896C192.896 244.035 193.104 244.035 193.18 243.896C195.474 239.728 197.128 237.522 200.445 234.135C200.518 234.06 200.518 233.94 200.445 233.865C197.128 230.478 195.474 228.272 193.18 224.104C193.104 223.965 192.896 223.965 192.82 224.104C190.526 228.272 188.872 230.478 185.555 233.865C185.482 233.94 185.482 234.06 185.555 234.135C188.872 237.522 190.526 239.728 192.82 243.896Z" fill="#BC1E24"/>
<path d="M65.9501 27.2599C65.7594 26.9134 65.2406 26.9134 65.0499 27.2599C59.3158 37.6809 55.1805 43.1955 46.8882 51.6621C46.7039 51.8503 46.7039 52.1498 46.8882 52.338C55.1805 60.8045 59.3158 66.3191 65.0499 76.7401C65.2406 77.0866 65.7594 77.0866 65.9501 76.7401C71.6842 66.3191 75.8195 60.8045 84.1118 52.338C84.2961 52.1498 84.2961 51.8503 84.1118 51.6621C75.8195 43.1955 71.6842 37.6809 65.9501 27.2599Z" fill="#BC1E24"/>
<path d="M65.9501 219.26C65.7594 218.913 65.2406 218.913 65.0499 219.26C59.3158 229.681 55.1805 235.196 46.8882 243.662C46.7039 243.85 46.7039 244.15 46.8882 244.338C55.1805 252.804 59.3158 258.319 65.0499 268.74C65.2406 269.087 65.7594 269.087 65.9501 268.74C71.6842 258.319 75.8195 252.804 84.1118 244.338C84.2961 244.15 84.2961 243.85 84.1118 243.662C75.8195 235.196 71.6842 229.681 65.9501 219.26Z" fill="#BC1E24"/>
<path d="M153.95 27.2599C153.759 26.9134 153.241 26.9134 153.05 27.2599C147.316 37.6809 143.181 43.1955 134.888 51.6621C134.704 51.8503 134.704 52.1498 134.888 52.338C143.181 60.8045 147.316 66.3191 153.05 76.7401C153.241 77.0866 153.759 77.0866 153.95 76.7401C159.684 66.3191 163.819 60.8045 172.112 52.338C172.296 52.1498 172.296 51.8503 172.112 51.6621C163.819 43.1955 159.684 37.6809 153.95 27.2599Z" fill="#BC1E24"/>
<path d="M65.9501 123.26C65.7594 122.913 65.2406 122.913 65.0499 123.26C59.3158 133.681 55.1805 139.196 46.8882 147.662C46.7039 147.85 46.7039 148.15 46.8882 148.338C55.1805 156.804 59.3158 162.319 65.0499 172.74C65.2406 173.087 65.7594 173.087 65.9501 172.74C71.6842 162.319 75.8195 156.804 84.1118 148.338C84.2961 148.15 84.2961 147.85 84.1118 147.662C75.8195 139.196 71.6842 133.681 65.9501 123.26Z" fill="#BC1E24"/>
<path d="M153.95 123.26C153.759 122.913 153.241 122.913 153.05 123.26C147.316 133.681 143.181 139.196 134.888 147.662C134.704 147.85 134.704 148.15 134.888 148.338C143.181 156.804 147.316 162.319 153.05 172.74C153.241 173.087 153.759 173.087 153.95 172.74C159.684 162.319 163.819 156.804 172.112 148.338C172.296 148.15 172.296 147.85 172.112 147.662C163.819 139.196 159.684 133.681 153.95 123.26Z" fill="#BC1E24"/>
<path d="M153.95 219.26C153.759 218.913 153.241 218.913 153.05 219.26C147.316 229.681 143.181 235.196 134.888 243.662C134.704 243.85 134.704 244.15 134.888 244.338C143.181 252.804 147.316 258.319 153.05 268.74C153.241 269.087 153.759 269.087 153.95 268.74C159.684 258.319 163.819 252.804 172.112 244.338C172.296 244.15 172.296 243.85 172.112 243.662C163.819 235.196 159.684 229.681 153.95 219.26Z" fill="#BC1E24"/>
</g>
</g>
<defs>
<filter id="filter0_d_18_673" x="0" y="0" width="219" height="304" filterUnits="userSpaceOnUse" color-interpolation-filters="sRGB">
<feFlood flood-opacity="0" result="BackgroundImageFix"/>
<feColorMatrix in="SourceAlpha" type="matrix" values="0 0 0 0 0 0 0 0 0 0 0 0 0 0 0 0 0 0 127 0" result="hardAlpha"/>
<feOffset dy="4"/>
<feGaussianBlur stdDeviation="4"/>
<feComposite in2="hardAlpha" operator="out"/>
<feColorMatrix type="matrix" values="0 0 0 0 0.614771 0 0 0 0 0.70094 0 0 0 0 0.806257 0 0 0 1 0"/>
<feBlend mode="normal" in2="BackgroundImageFix" result="effect1_dropShadow_18_673"/>
<feBlend mode="normal" in="SourceGraphic" in2="effect1_dropShadow_18_673" result="shape"/>
</filter>
<clipPath id="clip0_18_673">
<rect x="8" y="4" width="203" height="288" rx="10" fill="white"/>
</clipPath>
</defs>
</svg>

<svg xmlns="http://www.w3.org/2000/svg" width="219" height="304" fill="none" viewBox="0 0 219 304"><g filter="url(#a)"><g clip-path="url(#b)"><rect width="203" height="288" x="8" y="4" fill="#fff" rx="10"/><path fill="#bc1e24" d="M16.03 31.127c0-9.629 3.704-14.974 10.35-14.974 2.143 0 4.205.58 5.726 1.621 1.322.861 2.122 1.962 2.122 2.883 0 .861-.62 1.502-1.48 1.502-.561 0-.982-.22-1.703-.921-1.441-1.422-2.943-2.062-4.724-2.062-4.465 0-6.827 3.924-6.887 11.41h.16c.921-2.441 3.784-4.163 6.907-4.163 5.085 0 8.648 3.663 8.648 8.889 0 5.505-3.763 9.249-9.329 9.249-3.383 0-6.086-1.402-7.727-3.984-1.382-2.203-2.062-5.305-2.062-9.45m3.905 4.305c0 3.583 2.482 6.126 6.025 6.126 3.444 0 5.746-2.423 5.746-6.106 0-3.644-2.322-6.046-5.886-6.046-3.463 0-5.885 2.482-5.885 6.026M26.18 52.104a.208.208 0 0 0-.36 0c-2.294 4.168-3.948 6.374-7.265 9.76a.193.193 0 0 0 0 .271c3.317 3.387 4.971 5.593 7.265 9.761a.208.208 0 0 0 .36 0c2.294-4.168 3.948-6.374 7.265-9.76a.193.193 0 0 0 0-.271c-3.317-3.387-4.971-5.593-7.265-9.761M202.969 264.873c0 9.629-3.703 14.974-10.35 14.974-2.142 0-4.204-.58-5.725-1.621-1.322-.861-2.123-1.962-2.123-2.883 0-.861.621-1.502 1.482-1.502.56 0 .981.221 1.702.921 1.441 1.422 2.942 2.062 4.724 2.062 4.465 0 6.827-3.924 6.887-11.411h-.16c-.921 2.442-3.784 4.164-6.907 4.164-5.085 0-8.648-3.663-8.648-8.889 0-5.505 3.763-9.249 9.329-9.249 3.383 0 6.086 1.402 7.727 3.984 1.382 2.202 2.062 5.306 2.062 9.45m-3.904-4.305c0-3.583-2.482-6.126-6.025-6.126-3.444 0-5.746 2.423-5.746 6.106 0 3.644 2.322 6.046 5.886 6.046 3.463 0 5.885-2.482 5.885-6.026M192.82 243.896a.208.208 0 0 0 .36 0c2.294-4.168 3.948-6.374 7.265-9.761a.194.194 0 0 0 0-.27c-3.317-3.387-4.971-5.593-7.265-9.761a.208.208 0 0 0-.36 0c-2.294 4.168-3.948 6.374-7.265 9.761a.194.194 0 0 0 0 .27c3.317 3.387 4.971 5.593 7.265 9.761M65.95 27.26a.52.52 0 0 0-.9 0c-5.734 10.42-9.87 15.936-18.162 24.402a.48.48 0 0 0 0 .676c8.293 8.466 12.428 13.981 18.162 24.402a.52.52 0 0 0 .9 0c5.734-10.42 9.87-15.935 18.162-24.402a.48.48 0 0 0 0-.676C75.82 43.196 71.684 37.681 65.95 27.26M65.95 219.26a.52.52 0 0 0-.9 0c-5.734 10.421-9.87 15.936-18.162 24.402a.48.48 0 0 0 0 .676c8.293 8.466 12.428 13.981 18.162 24.402a.52.52 0 0 0 .9 0c5.734-10.421 9.87-15.936 18.162-24.402a.48.48 0 0 0 0-.676c-8.292-8.466-12.428-13.981-18.162-24.402M153.95 27.26a.52.52 0 0 0-.9 0c-5.734 10.42-9.869 15.936-18.162 24.402a.483.483 0 0 0 0 .676c8.293 8.466 12.428 13.981 18.162 24.402a.52.52 0 0 0 .9 0c5.734-10.42 9.869-15.935 18.162-24.402a.483.483 0 0 0 0-.676c-8.293-8.466-12.428-13.981-18.162-24.402M65.95 123.26a.52.52 0 0 0-.9 0c-5.734 10.421-9.87 15.936-18.162 24.402a.48.48 0 0 0 0 .676c8.293 8.466 12.428 13.981 18.162 24.402a.52.52 0 0 0 .9 0c5.734-10.421 9.87-15.936 18.162-24.402a.48.48 0 0 0 0-.676c-8.292-8.466-12.428-13.981-18.162-24.402M153.95 123.26a.52.52 0 0 0-.9 0c-5.734 10.421-9.869 15.936-18.162 24.402a.483.483 0 0 0 0 .676c8.293 8.466 12.428 13.981 18.162 24.402a.52.52 0 0 0 .9 0c5.734-10.421 9.869-15.936 18.162-24.402a.483.483 0 0 0 0-.676c-8.293-8.466-12.428-13.981-18.162-24.402M153.95 219.26a.52.52 0 0 0-.9 0c-5.734 10.421-9.869 15.936-18.162 24.402a.483.483 0 0 0 0 .676c8.293 8.466 12.428 13.981 18.162 24.402a.52.52 0 0 0 .9 0c5.734-10.421 9.869-15.936 18.162-24.402a.483.483 0 0 0 0-.676c-8.293-8.466-12.428-13.981-18.162-24.402"/></g></g><defs><clipPath id="b"><rect width="203" height="288" x="8" y="4" fill="#fff" rx="10"/></clipPath><filter id="a" width="219" height="304" x="0" y="0" color-interpolation-filters="sRGB" filterUnits="userSpaceOnUse"><feFlood flood-opacity="0" result="BackgroundImageFix"/><feColorMatrix in="SourceAlpha" result="hardAlpha" values="0 0 0 0 0 0 0 0 0 0 0 0 0 0 0 0 0 0 127 0"/><feOffset dy="4"/><feGaussianBlur stdDeviation="4"/><feComposite in2="hardAlpha" operator="out"/><feColorMatrix values="0 0 0 0 0.614771 0 0 0 0 0.70094 0 0 0 0 0.806257 0 0 0 1 0"/><feBlend in2="BackgroundImageFix" result="effect1_dropShadow_18_673"/><feBlend in="SourceGraphic" in2="effect1_dropShadow_18_673" result="shape"/></filter></defs></svg>
